svg/u1f44f.svg

<svg viewBox="0 0 128 128" xmlns="http://www.w3.org/2000/svg">
  <g id="hand_1_">
    <radialGradient id="SVGID_1_" cx="-928.5591" cy="-646.4709" gradientTransform="matrix(0.6817 -0.7317 0.7317 0.6817 1142.2253 -192.6976)" gradientUnits="userSpaceOnUse" r="85.9207">
      <stop offset="0.6" stop-color="#FFB300"/>
      <stop offset="0.8984" stop-color="#FFCA28"/>
    </radialGradient>
    <path d="M72.18,120.5c-4.95,0-9.81-1.76-14.47-5.24c-3.89-2.9-43.83-39.18-44.24-39.54 c-2.32-2.16-4.5-5.39-1.67-8.43c1.13-1.22,2.55-1.86,4.09-1.86c1.74,0,3.56,0.79,5.11,2.24l16.51,14.77 c0.32,0.28,0.71,0.42,1.1,0.42c0.44,0,0.89-0.18,1.21-0.53c0.61-0.66,0.58-1.69-0.07-2.31L13.34,54.63 c-1.47-1.37-2.39-3.02-2.58-4.67c-0.2-1.65,0.33-3.21,1.54-4.5c1.13-1.22,2.55-1.86,4.09-1.86c1.74,0,3.56,0.79,5.11,2.24 l26.97,24.49c0.32,0.29,0.71,0.43,1.11,0.43c0.44,0,0.88-0.18,1.21-0.53c0.62-0.66,0.59-1.7-0.07-2.32L18.27,36.94 c-1.47-1.37-2.38-3.02-2.58-4.66c-0.2-1.65,0.33-3.21,1.54-4.5c1.13-1.22,2.55-1.86,4.09-1.86c1.74,0,3.56,0.79,5.11,2.24l33.03,30 c0.32,0.29,0.71,0.43,1.11,0.43c0.44,0,0.88-0.18,1.21-0.52c0.62-0.66,0.59-1.7-0.07-2.32L37.68,32.73 c-2.56-2.39-3.87-6.14-1.05-9.17c1.13-1.22,2.55-1.86,4.09-1.86c1.74,0,3.56,0.79,5.11,2.24C54.61,31.98,77.55,53,78.37,53.81 c0.64,0.72,1.36,0.88,1.84,0.88c1.86,0,2.76-2.1,2.84-4.18c0.09-2.47-0.57-5.53-1.2-8.49c-0.69-3.23-1.41-6.57-1.09-8.83 c0.63-4.54,4.73-7.44,7.27-7.44c0.3,0,0.56,0.04,0.75,0.13c3.9,1.67,3.84,4.01,3.29,9.64l-0.11,1.1 c-0.53,5.61,1.97,10.74,4.39,15.7c1.07,2.2,2.18,4.48,3.02,6.78c0.4,1.1,0.96,2.35,1.62,3.8c4.37,9.68,11.69,25.89-6.53,45.6 C87.12,116.47,79.62,120.5,72.18,120.5C72.18,120.5,72.18,120.5,72.18,120.5z" fill="url(#SVGID_1_)"/>
    <path d="M40.72,23.36L40.72,23.36c1.32,0,2.74,0.64,4,1.81c12.43,11.38,31.2,28.58,32.45,29.78 c1.13,1.21,2.38,1.39,3.03,1.39c2.56,0,4.36-2.32,4.49-5.77c0.1-2.68-0.58-5.84-1.23-8.89c-0.66-3.09-1.35-6.29-1.07-8.25 c0.52-3.73,3.94-6.02,5.64-6.02c0.06,0,0.1,0,0.12,0c0.01,0,0.01,0,0.01,0c2.71,1.16,2.83,2.27,2.27,7.96l-0.11,1.11 c-0.57,6.07,2.03,11.41,4.55,16.58c1.06,2.17,2.15,4.41,2.95,6.62c0.42,1.16,1,2.44,1.66,3.91c4.2,9.31,11.24,24.89-6.24,43.8 c-7.02,7.59-14.11,11.45-21.07,11.45c-4.58,0-9.12-1.65-13.48-4.91c-3.18-2.37-32.92-29.27-44.08-39.41 c-1.33-1.24-2.19-2.52-2.43-3.6c-0.14-0.65-0.16-1.45,0.83-2.51c0.82-0.88,1.79-1.33,2.89-1.33c1.32,0,2.74,0.64,3.98,1.79 c0.02,0.02,0.03,0.03,0.05,0.04l16.48,14.75c0.63,0.56,1.42,0.84,2.2,0.84c0.89,0,1.77-0.36,2.42-1.06 c1.23-1.32,1.17-3.38-0.13-4.63L14.49,53.44c-0.01-0.01-0.02-0.02-0.04-0.04c-1.17-1.09-1.9-2.38-2.05-3.64 c-0.14-1.17,0.23-2.24,1.11-3.18c0.82-0.88,1.79-1.33,2.89-1.33c1.32,0,2.74,0.64,4.01,1.82l26.95,24.47 c0.63,0.57,1.43,0.86,2.22,0.86c0.89,0,1.77-0.35,2.42-1.05c1.23-1.32,1.17-3.39-0.14-4.64l-32.47-31 c-1.8-1.68-3.13-4.47-0.95-6.82c0.82-0.88,1.79-1.33,2.89-1.33c1.32,0,2.74,0.64,4.01,1.82l33.02,29.99 c0.63,0.57,1.43,0.86,2.22,0.86c0.88,0,1.77-0.35,2.42-1.05c1.23-1.32,1.17-3.39-0.13-4.64L38.79,31.51 c-1.17-1.09-1.9-2.38-2.05-3.64c-0.14-1.17,0.23-2.24,1.11-3.18C38.66,23.81,39.63,23.36,40.72,23.36 M40.72,20.06 c-1.91,0-3.78,0.75-5.3,2.38c-3.24,3.48-2.38,8.23,1.11,11.48l24.04,23.01L27.55,26.94c-1.85-1.72-4.07-2.68-6.23-2.68 c-1.91,0-3.78,0.75-5.3,2.38c-3.24,3.48-2.38,8.23,1.11,11.48l32.44,30.97L22.62,44.63c-1.85-1.72-4.07-2.68-6.23-2.68 c-1.91,0-3.78,0.75-5.3,2.38c-3.24,3.48-2.38,8.23,1.11,11.48L38.61,81.2L22.13,66.46c-1.85-1.72-4.07-2.68-6.23-2.68 c-1.91,0-3.78,0.75-5.3,2.38c-3.24,3.48-1.73,7.53,1.77,10.78c0,0,40.36,36.66,44.36,39.64c3.32,2.47,8.68,5.56,15.46,5.56 c6.67,0,14.7-2.99,23.5-12.51c21.77-23.56,8.19-42.99,5.25-51.09c-2.74-7.53-8.02-14.24-7.32-21.76 c0.56-5.99,1.34-10.07-4.18-12.42c-0.41-0.18-0.89-0.26-1.4-0.26c-3.26,0-8.15,3.38-8.91,8.86c-0.66,4.73,2.45,12.57,2.28,17.48 c-0.04,1.22-0.5,2.59-1.19,2.59c-0.2,0-0.42-0.11-0.65-0.37c-0.44-0.49-32.6-29.93-32.6-29.93C45.1,21.01,42.88,20.06,40.72,20.06 L40.72,20.06z" fill="#EDA600"/>
  </g>
  <g id="hand">
    <radialGradient id="SVGID_2_" cx="-447.3379" cy="-162.8363" gradientTransform="matrix(0.9297 -0.3684 0.3684 0.9297 532.7306 24.3923)" gradientUnits="userSpaceOnUse" r="87.3299">
      <stop offset="0.3533" stop-color="#FFCA28"/>
      <stop offset="0.8723" stop-color="#FFB300"/>
    </radialGradient>
    <path d="M70.94,122.35c-15,0-22.62-10.1-25.82-16.12c-2.28-4.29-22.08-51.13-22.28-51.6 c-0.79-1.99-1.04-3.82-0.71-5.24c0.33-1.45,1.26-2.45,2.83-3.08c0.74-0.29,1.48-0.44,2.21-0.44c2.5,0,4.78,1.81,5.94,4.73 l8.57,20.43c0.27,0.63,0.88,1.01,1.52,1.01c0.2,0,0.41-0.04,0.61-0.12c0.84-0.33,1.25-1.28,0.93-2.12L31.78,35.54 c-1.29-3.26-0.86-7.21,2.99-8.73c0.74-0.29,1.48-0.44,2.21-0.44c2.51,0,4.78,1.81,5.94,4.73l13.85,33.69 c0.26,0.64,0.88,1.02,1.53,1.02c0.2,0,0.41-0.04,0.61-0.12c0.84-0.33,1.26-1.28,0.93-2.12l-16.01-41.9 c-1.29-3.25-0.86-7.2,2.99-8.73c0.74-0.29,1.48-0.44,2.21-0.44c2.51,0,4.78,1.81,5.94,4.73l16.96,41.27 c0.26,0.64,0.88,1.02,1.53,1.02c0.2,0,0.41-0.04,0.61-0.12c0.84-0.33,1.26-1.28,0.94-2.12L63.15,26.2 c-1.29-3.26-0.86-7.2,2.99-8.73c0.74-0.29,1.48-0.44,2.21-0.44c2.51,0,4.78,1.81,5.94,4.73c4.48,11.03,16.19,39.85,16.57,40.94 c0.38,1.31,1.41,1.79,2.23,1.79c1.83,0,3.07-2.12,3.41-2.77c1.01-1.94,1.29-4.16,1.58-6.5c0.42-3.39,0.86-6.9,3.62-9.92 c2.29-2.51,5.23-3.95,8.04-3.95c1.34,0,2.55,0.33,3.48,0.95c2.32,1.55,2.44,3.05,2.25,4.31c-0.34,2.26-2.12,5.17-3.81,7.71 c-3.48,5.22-3.89,13.13-4.25,20.11c-0.11,2.06-0.21,4-0.38,5.8c-0.14,1.49-0.09,3.28-0.02,5.34c0.32,10.46,0.81,26.26-22.04,34.17 C80.01,121.48,75.29,122.35,70.94,122.35C70.94,122.35,70.94,122.35,70.94,122.35z" fill="url(#SVGID_2_)"/>
    <path d="M49.02,14.16c1.81,0,3.5,1.41,4.42,3.73l16.95,41.25c0.52,1.28,1.76,2.05,3.06,2.05 c0.4,0,0.82-0.07,1.21-0.23c1.68-0.67,2.51-2.56,1.87-4.25L64.68,25.57c-0.59-1.49-0.69-2.97-0.29-4.17 c0.37-1.12,1.17-1.92,2.36-2.39c0.55-0.22,1.09-0.33,1.6-0.33c1.81,0,3.5,1.41,4.41,3.72c6.35,15.62,15.92,39.21,16.53,40.83 c0.57,1.78,2.05,2.92,3.79,2.92c2.76,0,4.43-2.8,4.88-3.66c1.15-2.21,1.46-4.67,1.75-7.05c0.41-3.28,0.8-6.38,3.2-9.01 c1.98-2.17,4.47-3.42,6.82-3.42c1,0,1.91,0.24,2.56,0.67c1.63,1.09,1.66,1.86,1.54,2.69c-0.29,1.95-2.05,4.79-3.56,7.04 c-3.73,5.6-4.15,13.75-4.53,20.94c-0.11,2.04-0.21,3.97-0.37,5.73c-0.15,1.59-0.1,3.43-0.03,5.55c0.16,5.04,0.35,11.32-2.19,17.26 c-2.98,6.96-9.11,11.96-18.74,15.3c-4.78,1.66-9.32,2.5-13.49,2.5c-14.14,0-21.33-9.55-24.36-15.24 c-1.87-3.5-16.65-38.28-22.2-51.43c-1.94-4.93,0.41-5.87,1.19-6.18c0.55-0.22,1.09-0.33,1.6-0.33c1.81,0,3.5,1.41,4.4,3.69 c0.01,0.02,0.02,0.04,0.03,0.06l8.56,20.39c0.53,1.26,1.75,2.03,3.05,2.03c0.41,0,0.82-0.08,1.22-0.24 c1.67-0.67,2.5-2.55,1.87-4.24L33.32,34.95c-0.01-0.02-0.01-0.03-0.02-0.05c-0.59-1.49-0.69-2.97-0.29-4.17 c0.37-1.12,1.17-1.92,2.36-2.39c0.55-0.22,1.09-0.33,1.6-0.33c1.81,0,3.5,1.41,4.42,3.73l13.84,33.67 c0.52,1.28,1.76,2.05,3.06,2.05c0.41,0,0.82-0.08,1.22-0.23c1.68-0.67,2.51-2.56,1.87-4.25L45.35,21.04 c-0.91-2.29-0.91-5.38,2.07-6.56C47.96,14.27,48.5,14.16,49.02,14.16 M49.02,10.85c-0.91,0-1.86,0.18-2.82,0.56 c-4.42,1.75-5.68,6.41-3.92,10.85l16.01,41.9L44.45,30.49c-1.38-3.47-4.2-5.78-7.47-5.78c-0.91,0-1.86,0.18-2.82,0.56 c-4.42,1.75-5.68,6.41-3.92,10.85L43.2,70.39l-8.56-20.39c-1.38-3.47-4.2-5.78-7.47-5.78c-0.91,0-1.86,0.18-2.82,0.56 c-4.42,1.75-4.79,6.06-3.03,10.5c0,0,20,47.33,22.35,51.74C47.4,114.03,55.75,124,70.94,124c4.29,0,9.13-0.79,14.57-2.68 c28.63-9.91,22.36-32.35,23.17-40.92c0.76-7.98,0.17-18.86,4.36-25.15c4.4-6.61,6.09-10.99,1.1-14.32 c-1.19-0.79-2.72-1.23-4.4-1.23c-2.97,0-6.41,1.36-9.26,4.49c-5.06,5.55-3.18,12.41-5.45,16.77c-0.5,0.96-1.33,1.88-1.95,1.88 c-0.28,0-0.52-0.19-0.66-0.67c-0.19-0.63-16.61-41.03-16.61-41.03c-1.38-3.47-4.2-5.78-7.47-5.78c-0.91,0-1.86,0.18-2.82,0.56 c-4.42,1.75-5.68,6.41-3.92,10.85l11.84,31.1L56.49,16.63C55.12,13.16,52.3,10.85,49.02,10.85L49.02,10.85z" fill="#EDA600"/>
  </g>
  <line fill="none" stroke="#B0BEC5" stroke-linecap="round" stroke-linejoin="round" stroke-miterlimit="10" stroke-width="4.4047" x1="99.07" x2="115.96" y1="30.43" y2="23.82"/>
  <line fill="none" stroke="#B0BEC5" stroke-linecap="round" stroke-linejoin="round" stroke-miterlimit="10" stroke-width="4.4047" x1="83.29" x2="81.82" y1="20.15" y2="4"/>
  <line fill="none" stroke="#B0BEC5" stroke-linecap="round" stroke-linejoin="round" stroke-miterlimit="10" stroke-width="4.4047" x1="94.1" x2="105.31" y1="22.1" y2="5.47"/>
</svg>

<svg viewBox="0 0 128 128" xmlns="http://www.w3.org/2000/svg">
  <defs>
    <radialGradient id="SVGID_1_" cx="-8.999033" cy="57.86312" gradientTransform="matrix(0.6817 -0.7317 0.7317 0.6817 0 0)" gradientUnits="userSpaceOnUse" r="85.9207">
      <stop offset="0.6" stop-color="#FFB300"/>
      <stop offset="0.8984" stop-color="#FFCA28"/>
    </radialGradient>
    <radialGradient id="SVGID_2_" cx="38.926124" cy="56.085897" gradientTransform="matrix(0.9297 -0.3684 0.3684 0.9297 0 0)" gradientUnits="userSpaceOnUse" r="87.3299">
      <stop offset="0.3533" stop-color="#FFCA28"/>
      <stop offset="0.8723" stop-color="#FFB300"/>
    </radialGradient>
  </defs>
  <path d="M72.18,120.5 C67.23,120.5 62.37,118.74 57.71,115.26 C53.82,112.36 13.88,76.08 13.47,75.72 C11.15,73.56 8.97,70.33 11.8,67.29 C12.93,66.07 14.35,65.43 15.89,65.43 C17.63,65.43 19.45,66.22 21,67.67 L37.51,82.44 C37.83,82.72 38.22,82.86 38.61,82.86 C39.05,82.86 39.5,82.68 39.82,82.33 C40.43,81.67 40.4,80.64 39.75,80.02 L13.34,54.63 C11.87,53.26 10.95,51.61 10.76,49.96 C10.56,48.31 11.09,46.75 12.3,45.46 C13.43,44.24 14.85,43.6 16.39,43.6 C18.13,43.6 19.95,44.39 21.5,45.84 L48.47,70.33 C48.79,70.62 49.18,70.76 49.58,70.76 C50.02,70.76 50.46,70.58 50.79,70.23 C51.41,69.57 51.38,68.53 50.72,67.91 L18.27,36.94 C16.8,35.57 15.89,33.92 15.69,32.28 C15.49,30.63 16.02,29.07 17.23,27.78 C18.36,26.56 19.78,25.92 21.32,25.92 C23.06,25.92 24.88,26.71 26.43,28.16 L59.46,58.16 C59.78,58.45 60.17,58.59 60.57,58.59 C61.01,58.59 61.45,58.41 61.78,58.07 C62.4,57.41 62.37,56.37 61.71,55.75 L37.68,32.73 C35.12,30.34 33.81,26.59 36.63,23.56 C37.76,22.34 39.18,21.7 40.72,21.7 C42.46,21.7 44.28,22.49 45.83,23.94 C54.61,31.98 77.55,53 78.37,53.81 C79.01,54.53 79.73,54.69 80.21,54.69 C82.07,54.69 82.97,52.59 83.05,50.51 C83.14,48.04 82.48,44.98 81.85,42.02 C81.16,38.79 80.44,35.45 80.76,33.19 C81.39,28.65 85.49,25.75 88.03,25.75 C88.33,25.75 88.59,25.79 88.78,25.88 C92.68,27.55 92.62,29.89 92.07,35.52 L91.96,36.62 C91.43,42.23 93.93,47.36 96.35,52.32 C97.42,54.52 98.53,56.8 99.37,59.1 C99.77,60.2 100.33,61.45 100.99,62.9 C105.36,72.58 112.68,88.79 94.46,108.5 C87.12,116.47 79.62,120.5 72.18,120.5 C72.18,120.5 72.18,120.5 72.18,120.5 Z" fill="url(#SVGID_1_)"/>
  <path d="M40.72,23.36 L40.72,23.36 C42.04,23.36 43.46,24 44.72,25.17 C57.15,36.55 75.92,53.75 77.17,54.95 C78.3,56.16 79.55,56.34 80.2,56.34 C82.76,56.34 84.56,54.02 84.69,50.57 C84.79,47.89 84.11,44.73 83.46,41.68 C82.8,38.59 82.11,35.39 82.39,33.43 C82.91,29.7 86.33,27.41 88.03,27.41 C88.09,27.41 88.13,27.41 88.15,27.41 C88.16,27.41 88.16,27.41 88.16,27.41 C90.87,28.57 90.99,29.68 90.43,35.37 L90.32,36.48 C89.75,42.55 92.35,47.89 94.87,53.06 C95.93,55.23 97.02,57.47 97.82,59.68 C98.24,60.84 98.82,62.12 99.48,63.59 C103.68,72.9 110.72,88.48 93.24,107.39 C86.22,114.98 79.13,118.84 72.17,118.84 C67.59,118.84 63.05,117.19 58.69,113.93 C55.51,111.56 25.77,84.66 14.61,74.52 C13.28,73.28 12.42,72 12.18,70.92 C12.04,70.27 12.02,69.47 13.01,68.41 C13.83,67.53 14.8,67.08 15.9,67.08 C17.22,67.08 18.64,67.72 19.88,68.87 C19.9,68.89 19.91,68.9 19.93,68.91 L36.41,83.66 C37.04,84.22 37.83,84.5 38.61,84.5 C39.5,84.5 40.38,84.14 41.03,83.44 C42.26,82.12 42.2,80.06 40.9,78.81 L14.49,53.44 C14.48,53.43 14.47,53.42 14.45,53.4 C13.28,52.31 12.55,51.02 12.4,49.76 C12.26,48.59 12.63,47.52 13.51,46.58 C14.33,45.7 15.3,45.25 16.4,45.25 C17.72,45.25 19.14,45.89 20.41,47.07 L47.36,71.54 C47.99,72.11 48.79,72.4 49.58,72.4 C50.47,72.4 51.35,72.05 52,71.35 C53.23,70.03 53.17,67.96 51.86,66.71 L19.39,35.71 C17.59,34.03 16.26,31.24 18.44,28.89 C19.26,28.01 20.23,27.56 21.33,27.56 C22.65,27.56 24.07,28.2 25.34,29.38 L58.36,59.37 C58.99,59.94 59.79,60.23 60.58,60.23 C61.46,60.23 62.35,59.88 63,59.18 C64.23,57.86 64.17,55.79 62.87,54.54 L38.79,31.51 C37.62,30.42 36.89,29.13 36.74,27.87 C36.6,26.7 36.97,25.63 37.85,24.69 C38.66,23.81 39.63,23.36 40.72,23.36 M40.72,20.06 C38.81,20.06 36.94,20.81 35.42,22.44 C32.18,25.92 33.04,30.67 36.53,33.92 L60.57,56.93 L27.55,26.94 C25.7,25.22 23.48,24.26 21.32,24.26 C19.41,24.26 17.54,25.01 16.02,26.64 C12.78,30.12 13.64,34.87 17.13,38.12 L49.57,69.09 L22.62,44.63 C20.77,42.91 18.55,41.95 16.39,41.95 C14.48,41.95 12.61,42.7 11.09,44.33 C7.85,47.81 8.71,52.56 12.2,55.81 L38.61,81.2 L22.13,66.46 C20.28,64.74 18.06,63.78 15.9,63.78 C13.99,63.78 12.12,64.53 10.6,66.16 C7.36,69.64 8.87,73.69 12.37,76.94 C12.37,76.94 52.73,113.6 56.73,116.58 C60.05,119.05 65.41,122.14 72.19,122.14 C78.86,122.14 86.89,119.15 95.69,109.63 C117.46,86.07 103.88,66.64 100.94,58.54 C98.2,51.01 92.92,44.3 93.62,36.78 C94.18,30.79 94.96,26.71 89.44,24.36 C89.03,24.18 88.55,24.1 88.04,24.1 C84.78,24.1 79.89,27.48 79.13,32.96 C78.47,37.69 81.58,45.53 81.41,50.44 C81.37,51.66 80.91,53.03 80.22,53.03 C80.02,53.03 79.8,52.92 79.57,52.66 C79.13,52.17 46.97,22.73 46.97,22.73 C45.1,21.01 42.88,20.06 40.72,20.06 L40.72,20.06 Z" fill="#EDA600"/>
  <path d="M70.94,122.35 C55.94,122.35 48.32,112.25 45.12,106.23 C42.84,101.94 23.04,55.1 22.84,54.63 C22.05,52.64 21.8,50.81 22.13,49.39 C22.46,47.94 23.39,46.94 24.96,46.31 C25.7,46.02 26.44,45.87 27.17,45.87 C29.67,45.87 31.95,47.68 33.11,50.6 L41.68,71.03 C41.95,71.66 42.56,72.04 43.2,72.04 C43.4,72.04 43.61,72 43.81,71.92 C44.65,71.59 45.06,70.64 44.74,69.8 L31.78,35.54 C30.49,32.28 30.92,28.33 34.77,26.81 C35.51,26.52 36.25,26.37 36.98,26.37 C39.49,26.37 41.76,28.18 42.92,31.1 L56.77,64.79 C57.03,65.43 57.65,65.81 58.3,65.81 C58.5,65.81 58.71,65.77 58.91,65.69 C59.75,65.36 60.17,64.41 59.84,63.57 L43.83,21.67 C42.54,18.42 42.97,14.47 46.82,12.94 C47.56,12.65 48.3,12.5 49.03,12.5 C51.54,12.5 53.81,14.31 54.97,17.23 L71.93,58.5 C72.19,59.14 72.81,59.52 73.46,59.52 C73.66,59.52 73.87,59.48 74.07,59.4 C74.91,59.07 75.33,58.12 75.01,57.28 L63.15,26.2 C61.86,22.94 62.29,19 66.14,17.47 C66.88,17.18 67.62,17.03 68.35,17.03 C70.86,17.03 73.13,18.84 74.29,21.76 C78.77,32.79 90.48,61.61 90.86,62.7 C91.24,64.01 92.27,64.49 93.09,64.49 C94.92,64.49 96.16,62.37 96.5,61.72 C97.51,59.78 97.79,57.56 98.08,55.22 C98.5,51.83 98.94,48.32 101.7,45.3 C103.99,42.79 106.93,41.35 109.74,41.35 C111.08,41.35 112.29,41.68 113.22,42.3 C115.54,43.85 115.66,45.35 115.47,46.61 C115.13,48.87 113.35,51.78 111.66,54.32 C108.18,59.54 107.77,67.45 107.41,74.43 C107.3,76.49 107.2,78.43 107.03,80.23 C106.89,81.72 106.94,83.51 107.01,85.57 C107.33,96.03 107.82,111.83 84.97,119.74 C80.01,121.48 75.29,122.35 70.94,122.35 C70.94,122.35 70.94,122.35 70.94,122.35 Z" fill="url(#SVGID_2_)"/>
  <path d="M49.02,14.16 C50.83,14.16 52.52,15.57 53.44,17.89 L70.39,59.14 C70.91,60.42 72.15,61.19 73.45,61.19 C73.85,61.19 74.27,61.12 74.66,60.96 C76.34,60.29 77.17,58.4 76.53,56.71 L64.68,25.57 C64.09,24.08 63.99,22.6 64.39,21.4 C64.76,20.28 65.56,19.48 66.75,19.01 C67.3,18.79 67.84,18.68 68.35,18.68 C70.16,18.68 71.85,20.09 72.76,22.4 C79.11,38.02 88.68,61.61 89.29,63.23 C89.86,65.01 91.34,66.15 93.08,66.15 C95.84,66.15 97.51,63.35 97.96,62.49 C99.11,60.28 99.42,57.82 99.71,55.44 C100.12,52.16 100.51,49.06 102.91,46.43 C104.89,44.26 107.38,43.01 109.73,43.01 C110.73,43.01 111.64,43.25 112.29,43.68 C113.92,44.77 113.95,45.54 113.83,46.37 C113.54,48.32 111.78,51.16 110.27,53.41 C106.54,59.01 106.12,67.16 105.74,74.35 C105.63,76.39 105.53,78.32 105.37,80.08 C105.22,81.67 105.27,83.51 105.34,85.63 C105.5,90.67 105.69,96.95 103.15,102.89 C100.17,109.85 94.04,114.85 84.41,118.19 C79.63,119.85 75.09,120.69 70.92,120.69 C56.78,120.69 49.59,111.14 46.56,105.45 C44.69,101.95 29.91,67.17 24.36,54.02 C22.42,49.09 24.77,48.15 25.55,47.84 C26.1,47.62 26.64,47.51 27.15,47.51 C28.96,47.51 30.65,48.92 31.55,51.2 C31.56,51.22 31.57,51.24 31.58,51.26 L40.14,71.65 C40.67,72.91 41.89,73.68 43.19,73.68 C43.6,73.68 44.01,73.6 44.41,73.44 C46.08,72.77 46.91,70.89 46.28,69.2 L33.32,34.95 C33.31,34.93 33.31,34.92 33.3,34.9 C32.71,33.41 32.61,31.93 33.01,30.73 C33.38,29.61 34.18,28.81 35.37,28.34 C35.92,28.12 36.46,28.01 36.97,28.01 C38.78,28.01 40.47,29.42 41.39,31.74 L55.23,65.41 C55.75,66.69 56.99,67.46 58.29,67.46 C58.7,67.46 59.11,67.38 59.51,67.23 C61.19,66.56 62.02,64.67 61.38,62.98 L45.35,21.04 C44.44,18.75 44.44,15.66 47.42,14.48 C47.96,14.27 48.5,14.16 49.02,14.16 M49.02,10.85 C48.11,10.85 47.16,11.03 46.2,11.41 C41.78,13.16 40.52,17.82 42.28,22.26 L58.29,64.16 L44.45,30.49 C43.07,27.02 40.25,24.71 36.98,24.71 C36.07,24.71 35.12,24.89 34.16,25.27 C29.74,27.02 28.48,31.68 30.24,36.12 L43.2,70.39 L34.64,50 C33.26,46.53 30.44,44.22 27.17,44.22 C26.26,44.22 25.31,44.4 24.35,44.78 C19.93,46.53 19.56,50.84 21.32,55.28 C21.32,55.28 41.32,102.61 43.67,107.02 C47.4,114.03 55.75,124 70.94,124 C75.23,124 80.07,123.21 85.51,121.32 C114.14,111.41 107.87,88.97 108.68,80.4 C109.44,72.42 108.85,61.54 113.04,55.25 C117.44,48.64 119.13,44.26 114.14,40.93 C112.95,40.14 111.42,39.7 109.74,39.7 C106.77,39.7 103.33,41.06 100.48,44.19 C95.42,49.74 97.3,56.6 95.03,60.96 C94.53,61.92 93.7,62.84 93.08,62.84 C92.8,62.84 92.56,62.65 92.42,62.17 C92.23,61.54 75.81,21.14 75.81,21.14 C74.43,17.67 71.61,15.36 68.34,15.36 C67.43,15.36 66.48,15.54 65.52,15.92 C61.1,17.67 59.84,22.33 61.6,26.77 L73.44,57.87 L56.49,16.63 C55.12,13.16 52.3,10.85 49.02,10.85 L49.02,10.85 Z" fill="#EDA600"/>
  <path d="M98.267,28.379 L115.157,21.769 Q116.007,21.437 116.843,21.802 Q117.678,22.168 118.011,23.017 Q118.343,23.867 117.978,24.703 Q117.612,25.538 116.763,25.871 L99.873,32.481 Q99.023,32.813 98.187,32.448 Q97.352,32.082 97.019,31.233 Q96.687,30.383 97.052,29.547 Q97.418,28.712 98.267,28.379 Z" fill="#B0BEC5"/>
  <path d="M81.097,20.35 L79.627,4.2 Q79.544,3.291 80.128,2.59 Q80.712,1.889 81.62,1.807 Q82.529,1.724 83.23,2.308 Q83.931,2.892 84.013,3.8 L85.483,19.95 Q85.566,20.859 84.982,21.56 Q84.398,22.261 83.49,22.343 Q82.581,22.426 81.88,21.842 Q81.179,21.258 81.097,20.35 Z" fill="#B0BEC5"/>
  <path d="M92.274,20.869 L103.484,4.239 Q103.994,3.483 104.889,3.308 Q105.785,3.134 106.541,3.644 Q107.297,4.154 107.472,5.049 Q107.646,5.945 107.136,6.701 L95.926,23.331 Q95.416,24.087 94.521,24.262 Q93.625,24.436 92.869,23.926 Q92.113,23.416 91.938,22.521 Q91.764,21.625 92.274,20.869 Z" fill="#B0BEC5"/>
</svg>
